svgs/sharp-regular/block-brick-fire.svg

<svg xmlns="http://www.w3.org/2000/svg" viewBox="0 0 640 512"><!--! Font Awesome Pro 6.6.0 by @fontawesome - https://fontawesome.com License - https://fontawesome.com/license (Commercial License) Copyright 2024 Fonticons, Inc. --><path d="M176 80l0 48 56 0 48 0 56 0 0-48L176 80zm-48 48l0-48L80 80l0 48 48 0zM80 176l0 56 152 0 0-56L80 176zm0 160l48 0 0-56-48 0 0 56zm0 48l0 48 152 0 0-48-56 0-48 0-48 0zm96-48l112.7 0c-.5 5.2-.7 10.5-.7 15.8c0 11 .9 21.7 2.7 32.2L280 384l0 48 25.5 0c8.1 17.6 18.8 33.8 31.5 48L80 480l-48 0 0-48L32 80l0-48 48 0 352 0 48 0 0 48 0 66.6-27.4-27.4L431 132.7c-15.3 9.6-35 24.4-54.8 43.3L280 176l0 56 48.5 0c-9.9 14.6-18.9 30.7-25.9 48L176 280l0 56zM432 128l0-48-48 0 0 48 48 0zm16 32l64 64 32-32c76.8 64 96 133.3 96 160c0 88.4-71.6 160-160 160s-160-71.6-160-160c0-89.6 85.3-165.3 128-192zm96 240.2c0-48-64-96-64-96s-64 48-64 96c0 35.3 28.7 64 64 64s64-28.7 64-64z"/></svg>

<svg xmlns="http://www.w3.org/2000/svg" viewBox="0 0 640 512"><!--! Font Awesome Pro 6.4.2 by @fontawesome - https://fontawesome.com License - https://fontawesome.com/license (Commercial License) Copyright 2023 Fonticons, Inc. --><path d="M176 80v48h56 48 56V80H176zm-48 48V80H80v48h48zM80 176v56H232V176H80zm0 160h48V280H80v56zm0 48v48H232V384H176 128 80zm96-48H289c-.6 5.3-1 10.7-1 16.2c0 10.9 .9 21.5 2.6 31.8H280v48h25.3c8.1 17.6 18.7 33.8 31.4 48H80 32V432 80 32H80 432h48V80v65.8c-10.4-9.2-21.2-18-32-26.8c-22.3 18.1-43.9 36.7-64 57H280v56h55.7c-11.2 15.1-21.5 31.1-29.6 48H176v56zM432 128V80H384v48h48zm81 96.1c17.2-19.5 31-32 31-32s96 86.4 96 160c0 88.4-71.6 160-160 160s-160-71.6-160-160s128-192 128-192s32.6 26.4 65 64zM530 433c30-21 38-63 20-96c-2-4-4-8-7-12l-36 42s-58-74-62-79c-30 37-45 58-45 82c0 49 36 78 81 78c18 0 34-5 49-15z"/></svg>
